X: 35784
T: Sally Magee
R: jig
M: 6/8
K: Gmajor
D|:DGG GFG|AFD FGA|B2G A2F|GED D2D|
DGG GFG|BAG ABc|(3Bcd B cAF|1 AGG G2E:|2 AGG G2g||
|:fef dfd|cAG FGA|fef dfd|cAF G2g|
fef dfd|cAG FGA|(3Bcd B cAF|1 AGG G2g:|2 AGG G3||

